X: 5
T: Drunken Tinker, The
Z: Daniel Parker
S: https://thesession.org/tunes/1555#setting30832
R: reel
M: 4/4
L: 1/8
K: Gmix
DG{A}GF DEFE|DGG/G/G dGBG|DG{A}GF DCDE|F/F/EFG ABcB|
{DA}~G3 DEFE|DGG/G/G dGBG|DGGF D3E|FEFG ABcA|
G2dG eGdG|G/G/GdG d2cA|G2dG eGdA|~c2AF CFAF|
G2dG eGdG|G/G/GdG d2cA|~d3e fefd|cAFD G3F|
